src/assets/icons/cars/horsepower.svg

<svg width="48" height="48" viewBox="0 0 48 48" fill="none" xmlns="http://www.w3.org/2000/svg">
<g id="Icons / Vertical Cars / Car horsepower">
<g id="Vector">
<path fill-rule="evenodd" clip-rule="evenodd" d="M21.9691 16.1245L22.7871 15.3065L26.3231 18.8425C26.5181 19.0385 26.7741 19.1355 27.0301 19.1355C27.2851 19.1355 27.5411 19.0385 27.7371 18.8425C28.1271 18.4525 28.1271 17.8195 27.7371 17.4285L24.2011 13.8925L25.6151 12.4785L32.6861 19.5495C32.8821 19.7455 33.1371 19.8425 33.3931 19.8425C33.6491 19.8425 33.9051 19.7455 34.1001 19.5495C34.4911 19.1595 34.4911 18.5265 34.1001 18.1355L27.0291 11.0645L27.8471 10.2475C28.0071 10.0875 28.2191 9.99951 28.4441 9.99951C28.6691 9.99951 28.8811 10.0875 29.0401 10.2475L37.7461 18.9535C37.9061 19.1125 37.9931 19.3245 37.9931 19.5495C37.9931 19.7745 37.9061 19.9865 37.7461 20.1465L31.8691 26.0245C31.5491 26.3425 30.9941 26.3425 30.6761 26.0245L21.9691 17.3175C21.8091 17.1585 21.7221 16.9465 21.7221 16.7215C21.7221 16.4965 21.8101 16.2845 21.9691 16.1245ZM20.5891 28.8185C19.8411 29.5655 19.5621 30.6515 19.8411 31.7245C20.2881 33.4365 19.7911 35.2735 18.5441 36.5205C17.6001 37.4645 16.3441 37.9845 15.0091 37.9845C13.2861 37.9845 11.7461 37.1405 10.7831 35.6685C9.7221 34.0465 9.7341 31.8725 10.8121 30.2565C11.7751 28.8155 13.3011 27.9895 14.9991 27.9895C15.4311 27.9895 15.8611 28.0445 16.2771 28.1545C17.3221 28.4295 18.4301 28.1495 19.1561 27.4225L23.4941 23.0855L24.9081 24.4995L20.5891 28.8185ZM22.7871 20.9645L17.7421 26.0085C17.4181 26.3325 17.0721 26.2945 16.7851 26.2195C16.2031 26.0665 15.6021 25.9895 14.9991 25.9895C12.6561 25.9895 10.4691 27.1695 9.1491 29.1465C7.6321 31.4195 7.6151 34.4805 9.1091 36.7635C10.4281 38.7805 12.6341 39.9845 15.0091 39.9845C16.8781 39.9845 18.6361 39.2565 19.9581 37.9345C21.7051 36.1875 22.4021 33.6145 21.7771 31.2195C21.6781 30.8415 21.7621 30.4735 22.0031 30.2335L27.0291 25.2065L29.2611 27.4385C29.7981 27.9755 30.5121 28.2715 31.2721 28.2715C32.0321 28.2715 32.7461 27.9755 33.2831 27.4385L39.1601 21.5605C39.6981 21.0235 39.9931 20.3095 39.9931 19.5495C39.9931 18.7905 39.6981 18.0765 39.1601 17.5395L30.4541 8.83251C29.9171 8.29551 29.2031 7.99951 28.4441 7.99951C27.6841 7.99951 26.9701 8.10951 26.4331 8.64751L24.9091 9.98451H25.0091V10.3585L20.6061 14.7105C20.0681 15.2475 19.7471 15.9615 19.7471 16.7215C19.7471 17.4805 20.0301 18.1955 20.5681 18.7315L22.7871 20.9645Z" fill="#253238"/>
<path fill-rule="evenodd" clip-rule="evenodd" d="M15.7152 33.6919C15.3382 34.0699 14.6792 34.0699 14.3012 33.6919C14.1122 33.5029 14.0082 33.2519 14.0082 32.9849C14.0082 32.7179 14.1122 32.4669 14.3022 32.2779C14.4902 32.0889 14.7412 31.9849 15.0082 31.9849C15.2762 31.9849 15.5272 32.0889 15.7152 32.2779C15.9042 32.4669 16.0082 32.7179 16.0082 32.9849C16.0082 33.2519 15.9042 33.5029 15.7152 33.6919ZM12.8872 30.8629C12.3202 31.4299 12.0082 32.1839 12.0082 32.9849C12.0082 33.7859 12.3202 34.5399 12.8872 35.1059C13.4542 35.6729 14.2072 35.9849 15.0082 35.9849C15.8102 35.9849 16.5632 35.6729 17.1302 35.1069C17.6962 34.5399 18.0082 33.7859 18.0082 32.9849C18.0082 32.1839 17.6962 31.4299 17.1302 30.8639C15.9962 29.7299 14.0202 29.7309 12.8872 30.8629Z" fill="#253238"/>
<path fill-rule="evenodd" clip-rule="evenodd" d="M29.1508 21.6709C29.3458 21.8659 29.6018 21.9639 29.8578 21.9639C30.1138 21.9639 30.3698 21.8659 30.5648 21.6709C30.9558 21.2799 30.9558 20.6479 30.5648 20.2569L29.8578 19.5499C29.4668 19.1589 28.8348 19.1589 28.4438 19.5499C28.0528 19.9409 28.0528 20.5729 28.4438 20.9639L29.1508 21.6709Z" fill="#253238"/>
</g>
</g>
</svg>

<svg width="48" height="48" viewBox="0 0 48 48" fill="none" xmlns="http://www.w3.org/2000/svg"><g fill-rule="evenodd" clip-rule="evenodd" fill="#253238"><path d="M21.97 16.125l.817-.819 3.536 3.537a.996.996 0 001.414 0 1 1 0 000-1.415l-3.536-3.536 1.414-1.413 7.071 7.07a.995.995 0 00.707.294.999.999 0 00.707-1.707l-7.07-7.071.817-.817a.839.839 0 011.193 0l8.706 8.705c.16.16.247.372.247.596a.838.838 0 01-.247.598l-5.877 5.878a.865.865 0 01-1.193 0l-8.707-8.707a.842.842 0 010-1.193zm-1.38 12.694c-.749.747-1.028 1.832-.749 2.905a5.013 5.013 0 01-1.297 4.796 4.967 4.967 0 01-3.535 1.464c-1.723 0-3.263-.843-4.226-2.316-1.06-1.621-1.049-3.796.03-5.412.962-1.44 2.488-2.267 4.186-2.267a5 5 0 011.278.165c1.045.276 2.153-.005 2.88-.732l4.337-4.337 1.414 1.415-4.319 4.319zm2.197-7.854l-5.045 5.044c-.324.323-.67.285-.957.21A7.028 7.028 0 0015 25.99c-2.343 0-4.53 1.18-5.85 3.157-1.517 2.273-1.534 5.334-.04 7.617 1.32 2.018 3.525 3.221 5.9 3.221a6.954 6.954 0 004.95-2.05 7.022 7.022 0 001.818-6.714c-.099-.378-.015-.746.226-.986l5.026-5.028 2.232 2.233a2.825 2.825 0 002.011.832c.76 0 1.474-.296 2.011-.832l5.877-5.878a2.821 2.821 0 00.833-2.012 2.82 2.82 0 00-.833-2.01l-8.706-8.706A2.825 2.825 0 0028.444 8c-.76 0-1.474.11-2.01.648l-1.525 1.337h.1v.373l-4.403 4.352a2.846 2.846 0 00-.859 2.011c0 .76.283 1.474.821 2.01l2.22 2.233z"/><path d="M15.715 33.692a1.023 1.023 0 01-1.414 0 .993.993 0 01-.293-.707.99.99 0 01.294-.707.99.99 0 01.706-.293.99.99 0 01.707.293c.19.189.293.44.293.707a.993.993 0 01-.293.707zm-2.828-2.83a2.982 2.982 0 00-.879 2.123c0 .8.312 1.555.88 2.12a2.98 2.98 0 002.12.88c.802 0 1.555-.312 2.122-.878a2.985 2.985 0 00.878-2.122c0-.801-.312-1.555-.878-2.121-1.134-1.134-3.11-1.133-4.243-.001zM29.15 21.67a.997.997 0 001.415 0 .999.999 0 000-1.413l-.707-.707a.999.999 0 10-1.414 1.414l.707.707z"/></g></svg>
